X:2952
T:O gud...
T:Icelandic national anthem
C:Sveinbj\orn Sveinbj\ornsson
Z:Transcribed by Frank Nordberg - http://www.musicaviva.com
F:http://abc.musicaviva.com/tunes/sveinbjornsson-sveinbjorn/sveinbjoernsson-o-gud.abc
M:C
L:1/8
K:C
G,2|C2D2E3D|C2D2B,2zG|ABcGF2EC|EDCDE2zG|
G2FEE2DC|B,CDEF2dc|B2AGD2G^F|G4z2G,G,|
A,2G,^F,G,2CE|G2ABc2zc|B2EAG2G^F|E4z2zG|
e2edc2EE|F2FED2zA|G2CDE2ED|C4z2GF|E2G2DzBG|
G2c2Hd2zG|e2edc2EE|F2FED2zA|G2CDE2ED|C6|]
W:
W:
W:  From Musica Viva - http://www.musicaviva.com
W:  the Internet center for free sheet music downloads.
